remix/Others/plug-fill.svg

<svg viewBox="0 0 24 24" fill="currentColor" xmlns="http://www.w3.org/2000/svg"><path d="M13 18V20H19V22H13C11.8954 22 11 21.1046 11 20V18H8C5.79086 18 4 16.2091 4 14V10H20V14C20 16.2091 18.2091 18 16 18H13ZM16 6H19C19.5523 6 20 6.44772 20 7V9H4V7C4 6.44772 4.44772 6 5 6H8V2H10V6H14V2H16V6ZM12 14.5C12.5523 14.5 13 14.0523 13 13.5C13 12.9477 12.5523 12.5 12 12.5C11.4477 12.5 11 12.9477 11 13.5C11 14.0523 11.4477 14.5 12 14.5Z"/></svg>

<svg viewBox="0 0 24 24" xmlns="http://www.w3.org/2000/svg"><path fill="none" d="M0 0h24v24H0Z"/><path d="M13 18v2h6v2h-6v0c-1.11 0-2-.9-2-2v-2H8v0c-2.21 0-4-1.8-4-4v-4h16v4 0c0 2.2-1.8 4-4 4h-3Zm3-12h3v0c.55 0 1 .44 1 1v2H4V7v0c0-.56.44-1 1-1h3V2h2v4h4V2h2v4Zm-4 8.5v0c.55 0 1-.45 1-1 0-.56-.45-1-1-1v0c-.56 0-1 .44-1 1 0 .55.44 1 1 1Z"/></svg>
